Media/twitter.svg

<svg width="47" height="47" viewBox="0 0 47 47" fill="none" xmlns="http://www.w3.org/2000/svg">
<path d="M23.8532 0.3125C11.1132 0.3125 0.783203 10.6951 0.783203 23.5C0.783203 36.3049 11.1132 46.6875 23.8532 46.6875C36.5932 46.6875 46.9232 36.3049 46.9232 23.5C46.9232 10.6951 36.5932 0.3125 23.8532 0.3125ZM34.9402 17.7911C34.9557 18.0344 34.9557 18.288 34.9557 18.5364C34.9557 26.1345 29.1985 34.8867 18.6779 34.8867C15.4337 34.8867 12.4264 33.9396 9.89277 32.3092C10.3562 32.3609 10.7991 32.3816 11.2729 32.3816C13.9506 32.3816 16.4121 31.4707 18.3741 29.9283C15.8611 29.8766 13.7498 28.2203 13.0288 25.943C13.9094 26.0724 14.7025 26.0724 15.6088 25.8395C14.3148 25.5752 13.1518 24.8689 12.3173 23.8405C11.4827 22.8121 11.0282 21.525 11.0308 20.1979V20.1254C11.7878 20.555 12.6787 20.8189 13.6108 20.8552C12.8272 20.3303 12.1846 19.6193 11.74 18.785C11.2953 17.9508 11.0624 17.0192 11.0617 16.0728C11.0617 15.0014 11.3398 14.0231 11.8393 13.1743C13.2755 14.9514 15.0677 16.4047 17.0994 17.44C19.1311 18.4753 21.3568 19.0693 23.6318 19.1834C22.8233 15.2757 25.7277 12.1133 29.2191 12.1133C30.8669 12.1133 32.35 12.8068 33.3953 13.9248C34.6879 13.6815 35.9238 13.195 37.0258 12.5429C36.5984 13.873 35.7024 14.9962 34.5128 15.7053C35.6663 15.5811 36.7786 15.2602 37.8085 14.8099C37.0309 15.9589 36.0577 16.9785 34.9402 17.7911Z" fill="white"/>
</svg>

<svg width="47" height="47" fill="none" xmlns="http://www.w3.org/2000/svg"><path d="M23.853.313C11.113.313.783 10.694.783 23.5c0 12.805 10.33 23.188 23.07 23.188s23.07-10.383 23.07-23.188S36.593.312 23.853.312ZM34.94 17.79c.016.243.016.497.016.745 0 7.598-5.758 16.35-16.278 16.35a16.16 16.16 0 0 1-8.785-2.577c.463.052.906.073 1.38.073 2.678 0 5.14-.911 7.101-2.454a5.724 5.724 0 0 1-5.345-3.985c.88.13 1.674.13 2.58-.104a5.711 5.711 0 0 1-3.292-1.998 5.763 5.763 0 0 1-1.286-3.643v-.073c.757.43 1.648.694 2.58.73a5.74 5.74 0 0 1-1.871-2.07 5.775 5.775 0 0 1-.678-2.712c0-1.072.278-2.05.777-2.899a16.25 16.25 0 0 0 5.26 4.266 16.171 16.171 0 0 0 6.533 1.743c-.809-3.907 2.096-7.07 5.587-7.07 1.648 0 3.131.694 4.176 1.812a11.265 11.265 0 0 0 3.63-1.382 5.717 5.717 0 0 1-2.512 3.162 11.265 11.265 0 0 0 3.296-.895 12.02 12.02 0 0 1-2.869 2.981Z" fill="#fff"/></svg>
